X:1
T:He Has Promised
T:Victor H. Benke
T:He Has Promised
T:Public Domain
T:Public Domain
C:Victor H. Benke
Z:Public Domain
%%score ( 1 2 ) ( 3 4 )
L:1/8
M:3/4
K:Bb
V:1 treble 
V:2 treble 
V:3 bass 
V:4 bass 
V:1
 [DF][DF] [DB]2 [DF]2 | E[EG] [DF]4 | [EF][Ec] [EG]2 [EA]2 | [DG][B,D] [DF]4 | %4
w: 1.~Can we read our|ti- tle clear|a man- sion in|the sky? Could|
w: 2.~If the Christ- ian|race we run,|the cross we meek-|ly bear, When|
w: 3.~O the vi- sions|of de- light,|ing from the o-|ther shore! O|
 [DF][DF] [Fd]2 [FB]2 | [=EA][EG] [Fc]4 | [Fd][GB] [DG]2 D2 | [=EA][EG] F4 || %8
w: we look with- out|a fear, If|we knew our end|nigh? * *|
w: at last our work|is done Crowns|in glo- ry we|wear. * *|
w: the morn- ing calm|and bright, That|shall dawn and fade|more! * *|
"^Refrain" [Fd][Fd] [Ec]2 [EG]2 | [EA][Ec] [DF]4 | [EF][EA] [Ec]2 [EF]2 | [FB][Fc] [Fd]4 | %12
w: ||||
w: ||||
w: ||||
 [FB][Fd] [Ff]2 [Fd]2 | [Gc][FG] [Ec]4 | [EB][EA] [Fd]2 [Ec]2 | [EG][EA] [DB]4 |] %16
w: ||||
w: ||||
w: ||||
V:2
 x6 | E x5 | x6 | x6 | x6 | x6 | x4 D2 | x2 F4 || x6 | x6 | x6 | x6 | x6 | x6 | x6 | x6 |] %16
w: |To|||||was||||||||||
w: |And|||||shall||||||||||
w: |Break-|||||no||||||||||
V:3
 [B,,B,][B,,B,] [B,,F,]2 [B,,B,]2 | [B,,G,][B,,A,] [B,,B,]4 | [F,A,][F,A,] [F,B,]2 [F,C]2 | %3
w: ~ ~ ~ ~|~ ~ ~|~ ~ ~ ~|
 [B,,B,][B,,F,] [B,,B,]4 | [B,,B,][B,,B,] [B,,B,]2 [D,B,]2 | [C,C][C,B,] [C,A,]4 | %6
w: ~ ~ ~|~ ~ ~ ~|~ ~ ~|
 [B,,B,][B,,D] [B,,B,]2 [B,,G,]2 | [C,B,][C,B,] [F,A,]4 || [B,,B,][D,B,] [F,A,]2 [F,A,]2 | %9
w: ~ ~ ~ ~|~ ~ ~|Hal- le- lu- jah!|
 [F,C][F,A,] B,4 | [F,A,][F,C] [F,A,]2 [F,A,]2 | [D,B,][C,B,] [B,,B,]4 | %12
w: bless the Lord!|shall con- quer thro’|His Word; Those|
 [B,,D][B,,B,] [D,B,]2 [B,,B,]2 | [E,C][D,=B,] [C,C]4 | [F,C][F,C] [F,A,]2 [F,A,]2 | %15
w: who trust Him to|the end He|has prom- ised to|
 [F,B,][F,C] [B,,B,]4 |] %16
w: de- fend. *|
V:4
 x6 | x6 | x6 | x6 | x6 | x6 | x6 | x6 || x6 | x2 B,4 | x6 | x6 | x6 | x6 | x6 | x6 |] %16
w: |||||||||We|||||||

